icons/cloud-star-outline.svg

<svg xmlns="http://www.w3.org/2000/svg" width="24" height="24" viewBox="0 0 24 24">
  <path d="M12.5,3 C16.918278,3 20.5,6.581722 20.5,11 C20.5,11.1204206 20.4973322,11.2405319 20.4920144,11.3602705 L20.4920144,11.3602705 L20.472,11.654 L20.5287365,11.6859719 C21.9683651,12.5292172 22.9183208,14.0574067 22.9949844,15.7749408 L22.9949844,15.7749408 L23,16 C23,18.6686219 20.9044736,20.8633628 18.2241536,20.9948042 L18.2241536,20.9948042 L18,21 L6.5,21 C6.38859112,21 6.28147754,20.9817932 6.18145173,20.9482064 L6.18145173,20.9482064 L6.166,20.942 L5.94889404,20.9081606 C3.19270368,20.4215684 1.11197825,18.064907 1.0043751,15.2308104 L1.0043751,15.2308104 L1,15 C1,12.5890868 2.43448394,10.4577805 4.56984355,9.51249345 L4.56984355,9.51249345 L4.646,9.48 L4.66919046,9.36089212 C5.4117318,5.78500472 8.52762508,3.12063681 12.2455902,3.00398632 L12.2455902,3.00398632 Z M12.5,5 C9.43685135,5 6.87436978,7.30747742 6.53871277,10.3255833 C6.49452585,10.7228961 6.21795931,11.0557172 5.83545006,11.171892 C4.16485155,11.6792823 3,13.2264394 3,15 C3,17.0601278 4.56515494,18.7784159 6.59904064,18.980229 L6.59904064,18.980229 L6.65802984,18.9878352 L6.722,19 L17.9754867,19.0003005 L18.1505472,18.9963105 C19.7424301,18.9180655 21,17.600955 21,16 C21,14.7340634 20.2086704,13.6174613 19.0426136,13.1870228 C18.5876682,13.0190841 18.3187909,12.5489278 18.4047462,12.0716539 C18.4679372,11.7207805 18.5,11.3626762 18.5,11 C18.5,7.6862915 15.8137085,5 12.5,5 Z M12.2212829,9.18140769 C12.3198892,9.23007281 12.3997029,9.30988657 12.448368,9.40849288 L13.3225168,11.1797118 L15.2771729,11.4637399 C15.5504453,11.5034487 15.7397861,11.7571702 15.7000773,12.0304426 C15.684265,12.1392611 15.6330214,12.2398323 15.5542796,12.3165866 L14.1398772,13.6952882 L14.4737723,15.6420462 C14.5204528,15.9142144 14.3376589,16.1726924 14.0654907,16.2193729 C13.9571118,16.2379613 13.8456278,16.220304 13.7482976,16.1691344 L12,15.25 L10.2517024,16.1691344 C10.0072801,16.2976348 9.70496657,16.2036616 9.57646617,15.9592393 C9.52529663,15.861909 9.50763929,15.750425 9.52622772,15.6420462 L9.86012284,13.6952882 L8.4457204,12.3165866 C8.24797861,12.123836 8.24393246,11.8072794 8.43668307,11.6095376 C8.51343737,11.5307958 8.61400857,11.4795522 8.72282709,11.4637399 L10.6774832,11.1797118 L11.551632,9.40849288 C11.6738431,9.16086605 11.973656,9.05919655 12.2212829,9.18140769 Z"/>
</svg>

<svg xmlns="http://www.w3.org/2000/svg" viewBox="0 0 24 24">
  <path d="M12.5 3a8 8 0 0 1 8 8.36l-.03.3.06.03a5 5 0 0 1 2.46 4.08L23 16a5 5 0 0 1-4.78 5H6.5a1 1 0 0 1-.32-.05h-.01l-.22-.04A6 6 0 0 1 1 15.23V15a6 6 0 0 1 3.57-5.49l.08-.03.02-.12A8 8 0 0 1 12.25 3zm0 2a6 6 0 0 0-5.96 5.33 1 1 0 0 1-.7.84 4 4 0 0 0 .76 7.81h.06l.06.02h11.43a3 3 0 0 0 .9-5.81 1 1 0 0 1-.65-1.12A6 6 0 0 0 12.5 5zm-.28 4.18c.1.05.18.13.23.23l.87 1.77 1.96.28a.5.5 0 0 1 .27.86l-1.41 1.38.33 1.94a.5.5 0 0 1-.72.53L12 15.25l-1.75.92a.5.5 0 0 1-.72-.53l.33-1.94-1.41-1.38a.5.5 0 0 1 .27-.86l1.96-.28.87-1.77a.5.5 0 0 1 .67-.23z"/>
</svg>
